!!!OTL: NACH DER HEIMATH MOECHT ICH WIEDER
!!!ARE: Europa, Mitteleuropa, Deutschland
!!!SCT: F0455
!!!YEM: Copyright 1995, estate of Helmut Schaffrath.
**kern
*ICvox
*Ivox
*M3/4
*k[f#]
*G:
{16dd
16cc
16b
16a
=1
4.g
8b
16a
16g
16f#
16g
=2
4g#
4a}
{16ee
16dd
16cc#
16dd
=3
4.ff#
8ee
8dd
8cc
=4
4b
4r}
{8ee
8cc#
=5
8dd
16cc#
16b
4.a
8g
=6
4g
4f#}
{8b
8b
=7
[4b
16b]
16a
16g
16f#
8a
16g
16e
=8
4d
4r}
{8dd
8dd
=9
4.ee
8dd
8a
8a#
=10
4b
8g
8r}
{8dd
8gg
=11
4gg
8ff#
8ee
8dd
8cc
=12
2b}
{8b
8b
=13
4b
4a
8b
8a
=14
4ee
4dd}
{8cc
8a
=15
8g
8a
4b
8b
8a
=16
4g
2r}
=17
{[2dd
8dd]
8a
=18
8cc
8b
4r}
{8dd
8ee
=19
[2dd
8dd]
8f#
=20
4a
4g}
==
!!!AGN: Heimat - Lied, Heimweh
!!!ONB: ESAC (Essen Associative Code) Database: FINK
!!!AMT: simple triple
!!!AIN: vox
!!!EED: Helmut Schaffrath
!!!EEV: 1.0
*-
